X: 44
T:Maid Behind the Bar
T:Green Mountain, The
M:4/4
L:1/8
R:Reel
K:D
|:FAAB AFED|FAAB ABde|fBBA Bcde|f2 af efdB|~A3B AFED|FAAB ABde|fBBA B
cdB|AFEF D2z2:|:fa~a2 fdde|fdad fd d2|gfga beef|gebe ge e2|faaf bfaf|
defd efde|fBBA B
cdB|AFEF D2z2:|
